X: 20782
T: AU CLAIR DE LA LUNE
Q: "Allegretto"
%R: march
B: "Edinburgh Repository of Music" v.2 p.78 #2
F: http://digital.nls.uk/special-collections-of-printed-music/pageturner.cfm?id=87776133
Z: 2015 John Chambers <jc:trillian.mit.edu>
N: The 2nd strain has initial repeat but no final repeat; not fixed.
M: 2/4
L: 1/8
K: G
|:\
ggga | b2a2 |\
gb aa/b/ | g2z2 :|\
|:\
aaaa | e2e2 |\
agfe | dc'ba |\
ggga | b2a2 |\
gb aa/b/ | g2z2 |]
